assets/icons/editdark.svg

<svg width="18" height="18" viewBox="0 0 18 18" fill="none" xmlns="http://www.w3.org/2000/svg">
<path d="M8.25 1.5H6.75C3 1.5 1.5 3 1.5 6.75V11.25C1.5 15 3 16.5 6.75 16.5H11.25C15 16.5 16.5 15 16.5 11.25V9.75" stroke="#8CA3FF" stroke-width="1.5" stroke-linecap="round" stroke-linejoin="round"/>
<path d="M12.0299 2.26592L6.11991 8.17592C5.89491 8.40092 5.66991 8.84342 5.62491 9.16592L5.30241 11.4234C5.18241 12.2409 5.75991 12.8109 6.57741 12.6984L8.83491 12.3759C9.14991 12.3309 9.59241 12.1059 9.82491 11.8809L15.7349 5.97092C16.7549 4.95092 17.2349 3.76592 15.7349 2.26592C14.2349 0.765922 13.0499 1.24592 12.0299 2.26592Z" stroke="#8CA3FF" stroke-width="1.5" stroke-miterlimit="10" stroke-linecap="round" stroke-linejoin="round"/>
<path d="M11.1826 3.11328C11.6851 4.90578 13.0876 6.30828 14.8876 6.81828" stroke="#8CA3FF" stroke-width="1.5" stroke-miterlimit="10" stroke-linecap="round" stroke-linejoin="round"/>
</svg>

<svg width="18" height="18" viewBox="0 0 18 18" fill="none" xmlns="http://www.w3.org/2000/svg"><path d="M8.25 1.5h-1.5C3 1.5 1.5 3 1.5 6.75v4.5C1.5 15 3 16.5 6.75 16.5h4.5c3.75 0 5.25-1.5 5.25-5.25v-1.5" stroke="#8CA3FF" stroke-width="1.5" stroke-linecap="round" stroke-linejoin="round"/><path d="m12.03 2.27-5.91 5.9c-.23.23-.45.67-.5 1l-.32 2.25c-.12.82.46 1.4 1.28 1.28l2.25-.32c.32-.05.76-.27 1-.5l5.9-5.9c1.02-1.03 1.5-2.21 0-3.71s-2.68-1.02-3.7 0" stroke="#8CA3FF" stroke-width="1.5" stroke-miterlimit="10" stroke-linecap="round" stroke-linejoin="round"/><path d="M11.18 3.11a5.3 5.3 0 0 0 3.7 3.7" stroke="#8CA3FF" stroke-width="1.5" stroke-miterlimit="10" stroke-linecap="round" stroke-linejoin="round"/></svg>
